docs/.vuepress/public/img/org/gitee.svg

<svg xmlns="http://www.w3.org/2000/svg" width="120" height="90" version="1.1" viewBox="0 0 500 158"><title>logo_gitee@1x</title><desc>Created with Sketch.</desc><g id="LOGO" fill="none" fill-rule="evenodd" stroke="none" stroke-width="1"><g id="logo_lightbg" transform="translate(-137.000000, -59.000000)"><g id="logo_gitee" transform="translate(137.000000, 59.000000)"><g id="Group" fill="#C71D23"><path id="Combined-Shape" d="M78.5543758,0 C121.93876,0 157.108752,35.169992 157.108752,78.5543758 C157.108752,121.93876 121.93876,157.108752 78.5543758,157.108752 C35.169992,157.108752 0,121.93876 0,78.5543758 C0,35.169992 35.169992,0 78.5543758,0 Z M118.318895,34.9130565 C118.318093,34.913056 118.317291,34.9130558 118.316489,34.9154611 L64.0071087,34.9154611 C47.938907,34.9154611 34.9130559,47.9413122 34.9130559,64.0095139 L34.9130559,118.316489 C34.9130559,120.458915 36.6498361,122.195696 38.7922629,122.195696 L96.011621,122.195696 C110.472686,122.195696 122.195696,110.472686 122.195696,96.011621 L122.195696,73.7067534 C122.195696,71.5643265 120.458915,69.8275463 118.316489,69.8275463 L73.7056076,69.8275463 C71.5635774,69.8285624 69.8269616,71.5647234 69.8253846,73.7067533 L69.822845,83.4043821 C69.8212359,85.5468086 71.5575612,87.2840435 73.699988,87.2846046 C73.7003374,87.2846047 73.7006868,87.2846047 73.7010362,87.2835567 L100.860057,87.2833304 C102.935533,87.2832818 104.630333,88.9131941 104.734247,90.9628493 L104.739264,91.1625051 L104.739264,91.1625051 L104.739264,93.1020105 C104.739264,99.5292912 99.5289235,104.739632 93.1016428,104.739632 L56.2462887,104.739632 C54.1041693,104.739525 52.3676219,103.003025 52.3674559,100.860906 L52.36644,64.0091248 C52.3659497,57.6807254 57.4170584,52.5319707 63.7076546,52.3748762 L64.0037404,52.3715037 L64.0037404,52.3715037 L118.305662,52.3715037 C120.447149,52.3690969 122.18354,50.6337828 122.187275,48.4922974 L122.19329,38.7946674 C122.197024,36.6522424 120.461321,34.9143854 118.318895,34.9130565 Z"/></g><path id="gitee" fill="#000" fill-rule="nonzero" d="M227.110815,139.075242 C238.918405,139.075242 248.344798,136.772085 255.389993,132.165772 C262.435188,127.559458 265.957786,121.594872 265.957786,114.272014 C265.957786,102.460953 257.141452,96.555423 239.508785,96.555423 L239.508785,96.555423 L228.645802,96.555423 C225.024808,96.555423 222.427138,96.2010912 220.852793,95.4924276 C219.278447,94.7837639 218.491275,93.6026578 218.491275,91.9491093 C218.491275,90.2955607 219.002937,88.9176036 220.026261,87.815238 C220.419848,87.3427955 220.93151,87.1853147 221.561248,87.3427955 C224.080201,88.0514592 226.481077,88.405791 228.763878,88.405791 C236.871756,88.405791 243.464327,86.4569659 248.541591,82.5593158 C253.618854,78.6616657 256.157486,72.893931 256.157486,65.2561116 C256.157486,62.421457 255.645824,59.901764 254.6225,57.6970326 C254.543782,57.5395518 254.563462,57.3623859 254.681538,57.1655349 C254.799613,56.9686838 254.976727,56.8702583 255.212879,56.8702583 L255.212879,56.8702583 L257.928625,56.8702583 C259.896556,56.8702583 261.549619,56.2009649 262.887812,54.862378 C264.226006,53.5237911 264.895103,51.8702425 264.895103,49.9017324 L264.895103,49.9017324 L264.895103,48.2481839 C264.895103,46.3584141 264.226006,44.7245507 262.887812,43.3465936 C261.549619,41.9686365 259.896556,41.2796579 257.928625,41.2796579 L257.928625,41.2796579 L240.571468,41.2796579 C240.020447,41.2796579 239.430067,41.2009175 238.800329,41.0434367 C235.730356,40.0985518 232.384872,39.6261094 228.763878,39.6261094 C223.647256,39.6261094 218.963578,40.511939 214.712846,42.2835981 C210.462114,44.0552572 206.939516,46.8899119 204.145053,50.787562 C201.35059,54.6852121 199.953359,59.3112109 199.953359,64.6655585 C199.953359,68.3663576 200.819249,71.7521951 202.551029,74.8230709 C204.282808,77.8939468 206.447533,80.3742696 209.045203,82.2640393 C209.202638,82.3427797 209.281355,82.4608903 209.281355,82.6183711 C209.281355,82.775852 209.202638,82.9333328 209.045203,83.0908136 C206.84112,84.6656217 205.069981,86.5750766 203.731788,88.8191781 C202.393594,91.0632797 201.724497,93.3664366 201.724497,95.7286488 C201.724497,100.768035 203.731788,104.665685 207.746368,107.421599 C207.903803,107.500339 207.98252,107.638135 207.98252,107.834986 C207.98252,108.031837 207.903803,108.209003 207.746368,108.366484 C204.597677,109.941292 202.21648,111.870432 200.602776,114.153904 C198.989072,116.437376 198.18222,118.957069 198.18222,121.712983 C198.18222,125.650003 199.520414,128.9571 202.196801,131.634274 C204.873188,134.311448 208.317068,136.220903 212.528442,137.362639 C216.739816,138.504374 221.600607,139.075242 227.110815,139.075242 Z M228.763878,75.413624 C226.166208,75.413624 224.060521,74.4884242 222.446817,72.6380247 C220.833113,70.7876251 220.026261,68.1301364 220.026261,64.6655585 C220.026261,61.2797211 220.833113,58.6616026 222.446817,56.811203 C224.060521,54.9608035 226.166208,54.0356037 228.763878,54.0356037 C231.361548,54.0356037 233.467235,54.9411184 235.080938,56.7521477 C236.694642,58.5631771 237.501494,61.2009807 237.501494,64.6655585 C237.501494,68.1301364 236.694642,70.7876251 235.080938,72.6380247 C233.467235,74.4884242 231.361548,75.413624 228.763878,75.413624 Z M230.416941,125.610633 C225.930056,125.610633 222.3681,125.000395 219.731072,123.779918 C217.094043,122.559442 215.775529,120.728728 215.775529,118.287775 C215.775529,116.319265 216.680778,114.468865 218.491275,112.736576 C218.727427,112.500355 219.081654,112.382245 219.553958,112.382245 L219.553958,112.382245 L219.908186,112.382245 C221.876117,112.775947 224.867373,112.972798 228.881954,112.972798 L228.881954,112.972798 L235.376128,112.972798 C238.839688,112.972798 241.37832,113.32713 242.992024,114.035793 C244.605728,114.744457 245.41258,116.043674 245.41258,117.933443 C245.41258,120.138175 244.015348,121.968889 241.220885,123.425587 C238.426422,124.882284 234.825107,125.610633 230.416941,125.610633 Z M287.565675,31.3583667 C291.107952,31.3583667 294.020491,30.3347415 296.303292,28.2874909 C298.586092,26.2402403 299.727493,23.6024367 299.727493,20.3740801 C299.727493,17.1457234 298.586092,14.4882347 296.303292,12.401614 C294.020491,10.3149932 291.107952,9.27168282 287.565675,9.27168282 C283.944681,9.27168282 280.973104,10.3149932 278.650945,12.401614 C276.328786,14.4882347 275.167706,17.1457234 275.167706,20.3740801 C275.167706,23.6024367 276.328786,26.2402403 278.650945,28.2874909 C280.973104,30.3347415 283.944681,31.3583667 287.565675,31.3583667 Z M291.226028,109.783811 C293.115242,109.783811 294.748626,109.094833 296.126178,107.716876 C297.50373,106.338919 298.192506,104.705055 298.192506,102.815285 L298.192506,102.815285 L298.192506,47.893852 C298.192506,46.0040823 297.50373,44.3702189 296.126178,42.9922618 C294.748626,41.6143046 293.115242,40.9253261 291.226028,40.9253261 L291.226028,40.9253261 L283.787246,40.9253261 C281.819315,40.9253261 280.166252,41.6143046 278.828059,42.9922618 C277.489865,44.3702189 276.820768,46.0040823 276.820768,47.893852 L276.820768,47.893852 L276.820768,102.815285 C276.820768,104.705055 277.489865,106.338919 278.828059,107.716876 C280.166252,109.094833 281.819315,109.783811 283.787246,109.783811 L283.787246,109.783811 L291.226028,109.783811 Z M342.589044,111.43736 C345.5803,111.43736 348.532197,111.161768 351.444736,110.610586 C353.33395,110.295624 354.79022,109.271999 355.813544,107.53971 C356.522,106.358604 356.876227,105.138127 356.876227,103.878281 C356.876227,103.327098 356.836869,102.736545 356.758151,102.106622 L356.758151,102.106622 L356.285848,100.216852 C355.892261,98.5633034 354.908296,97.2444016 353.33395,96.2601465 C351.759605,95.2758914 349.988467,94.7443937 348.020535,94.6656533 C342.589044,94.4294321 339.873298,90.8861138 339.873298,84.0356985 L339.873298,84.0356985 L339.873298,58.6419175 C339.873298,58.0907346 340.148808,57.8151432 340.699829,57.8151432 L340.699829,57.8151432 L349.083218,57.8151432 C350.972432,57.8151432 352.605816,57.1261647 353.983368,55.7482076 C355.36092,54.3702504 356.049696,52.736387 356.049696,50.8466173 L356.049696,50.8466173 L356.049696,47.893852 C356.049696,46.0040823 355.36092,44.3702189 353.983368,42.9922618 C352.605816,41.6143046 350.972432,40.9253261 349.083218,40.9253261 L349.083218,40.9253261 L340.699829,40.9253261 C340.148808,40.9253261 339.873298,40.6497347 339.873298,40.0985518 L339.873298,40.0985518 L339.873298,29.8229288 C339.873298,27.8544187 339.184522,26.2008701 337.80697,24.8622832 C336.429418,23.5236963 334.796034,22.8544029 332.90682,22.8544029 L332.90682,22.8544029 L328.892239,22.8544029 C326.924308,22.8544029 325.192528,23.5040112 323.6969,24.8032279 C322.201272,26.1024446 321.296023,27.7363081 320.981154,29.7048182 L320.981154,29.7048182 L319.682319,40.0985518 C319.603602,40.6497347 319.249374,40.9646963 318.619636,41.0434367 L318.619636,41.0434367 L315.903891,41.2796579 C313.935959,41.4371387 312.282896,42.2442279 310.944703,43.7009254 C309.606509,45.1576229 308.937413,46.8702268 308.937413,48.8387369 L308.937413,48.8387369 L308.937413,50.8466173 C308.937413,52.736387 309.626189,54.3702504 311.003741,55.7482076 C312.381293,57.1261647 314.014676,57.8151432 315.903891,57.8151432 L315.903891,57.8151432 L317.438877,57.8151432 C317.989898,57.8151432 318.265409,58.0907346 318.265409,58.6419175 L318.265409,58.6419175 L318.265409,84.2719197 C318.265409,92.8546239 320.23334,99.5278734 324.169204,104.291668 C328.105067,109.055463 334.245014,111.43736 342.589044,111.43736 Z M400.328158,111.43736 C406.625539,111.43736 412.844203,109.980662 418.98415,107.067267 C420.71593,106.279863 421.817971,104.901906 422.290275,102.933396 C422.526427,102.303473 422.644503,101.673549 422.644503,101.043626 C422.644503,99.8625201 422.290275,98.681414 421.581819,97.5003079 L421.581819,97.5003079 L421.227592,96.7916443 C420.282985,95.1380957 418.905432,94.03573 417.094935,93.4845472 C416.229045,93.248326 415.363155,93.1302154 414.497266,93.1302154 C413.473941,93.1302154 412.489975,93.2876962 411.545368,93.6026578 C408.868981,94.5475427 406.113877,95.0199851 403.280055,95.0199851 C393.991418,95.0199851 388.363133,90.8861138 386.395202,82.6183711 C386.316485,82.3821499 386.355843,82.1656138 386.513278,81.9687628 C386.670712,81.7719118 386.867505,81.6734863 387.103657,81.6734863 L387.103657,81.6734863 L419.574529,81.6734863 C421.621178,81.6734863 423.431675,81.0238779 425.00602,79.7246612 C426.580366,78.4254445 427.406897,76.7915811 427.485614,74.8230709 L427.485614,74.8230709 L427.485614,72.5789694 C427.485614,62.6576782 424.966662,54.6261568 419.928757,48.4844051 C414.890852,42.3426534 407.570146,39.2717776 397.96664,39.2717776 C393.794625,39.2717776 389.760365,40.1182369 385.86386,41.8111557 C381.967356,43.5040744 378.503796,45.8662866 375.473181,48.8977922 C372.442567,51.9292979 370.002331,55.7482076 368.152476,60.3545213 C366.30262,64.9608351 365.377692,69.980536 365.377692,75.413624 C365.377692,86.5160213 368.664138,95.2955765 375.237029,101.75229 C381.809921,108.209003 390.173631,111.43736 400.328158,111.43736 Z M408.357319,67.7364344 L386.74943,67.7364344 C386.198409,67.7364344 385.922898,67.5395834 385.922898,67.1458813 C385.922898,63.9175247 387.457885,61.0434999 390.527858,58.5238069 C392.731942,56.6340371 395.36897,55.6891522 398.438943,55.6891522 C401.98122,55.6891522 404.637928,56.6930924 406.409067,58.7009728 C408.180205,60.7088531 409.144492,63.405712 409.301926,66.7915495 L409.301926,66.7915495 L409.301926,66.9096601 C409.301926,67.460843 408.987057,67.7364344 408.357319,67.7364344 L408.357319,67.7364344 Z M472.354456,111.43736 C478.651837,111.43736 484.870501,109.980662 491.010447,107.067267 C492.742227,106.279863 493.844269,104.901906 494.316573,102.933396 C494.552724,102.303473 494.6708,101.673549 494.6708,101.043626 C494.6708,99.8625201 494.316573,98.681414 493.608117,97.5003079 L493.608117,97.5003079 L493.25389,96.7916443 C492.309282,95.1380957 490.93173,94.03573 489.121233,93.4845472 C488.255343,93.248326 487.389453,93.1302154 486.523563,93.1302154 C485.500239,93.1302154 484.516273,93.2876962 483.571666,93.6026578 C480.895279,94.5475427 478.140175,95.0199851 475.306353,95.0199851 C466.017716,95.0199851 460.389431,90.8861138 458.4215,82.6183711 C458.342782,82.3821499 458.382141,82.1656138 458.539576,81.9687628 C458.69701,81.7719118 458.893803,81.6734863 459.129955,81.6734863 L459.129955,81.6734863 L491.600827,81.6734863 C493.647476,81.6734863 495.457973,81.0238779 497.032318,79.7246612 C498.606664,78.4254445 499.433195,76.7915811 499.511912,74.8230709 L499.511912,74.8230709 L499.511912,72.5789694 C499.511912,62.6576782 496.99296,54.6261568 491.955055,48.4844051 C486.91715,42.3426534 479.596444,39.2717776 469.992938,39.2717776 C465.820923,39.2717776 461.786663,40.1182369 457.890158,41.8111557 C453.993653,43.5040744 450.530094,45.8662866 447.499479,48.8977922 C444.468864,51.9292979 442.028629,55.7482076 440.178773,60.3545213 C438.328918,64.9608351 437.40399,69.980536 437.40399,75.413624 C437.40399,86.5160213 440.690436,95.2955765 447.263327,101.75229 C453.836219,108.209003 462.199928,111.43736 472.354456,111.43736 Z M480.383617,67.7364344 L458.775727,67.7364344 C458.224706,67.7364344 457.949196,67.5395834 457.949196,67.1458813 C457.949196,63.9175247 459.484183,61.0434999 462.554156,58.5238069 C464.758239,56.6340371 467.395268,55.6891522 470.465241,55.6891522 C474.007518,55.6891522 476.664226,56.6930924 478.435364,58.7009728 C480.206503,60.7088531 481.170789,63.405712 481.328224,66.7915495 L481.328224,66.7915495 L481.328224,66.9096601 C481.328224,67.460843 481.013355,67.7364344 480.383617,67.7364344 L480.383617,67.7364344 Z"/></g></g></g></svg>

<svg viewBox="0 0 500 158"><g fill="none" fill-rule="evenodd"><path fill="#C71D23" d="M78.554 0c43.385 0 78.555 35.17 78.555 78.554 0 43.385-35.17 78.555-78.555 78.555C35.17 157.109 0 121.939 0 78.554 0 35.17 35.17 0 78.554 0zm39.765 34.913s-.002 0-.003.002H64.007c-16.068 0-29.094 13.026-29.094 29.095v54.306a3.88 3.88 0 003.88 3.88h57.219c14.46 0 26.184-11.723 26.184-26.184V73.707a3.88 3.88 0 00-3.88-3.88h-44.61a3.882 3.882 0 00-3.88 3.88l-.003 9.697a3.878 3.878 0 003.878 3.88h27.16a3.88 3.88 0 013.873 3.679l.005.2v1.939c0 6.427-5.21 11.638-11.637 11.638H56.246a3.879 3.879 0 01-3.879-3.88V64.01c-.001-6.33 5.05-11.478 11.34-11.635l.297-.003h54.302a3.886 3.886 0 003.881-3.88l.006-9.697a3.876 3.876 0 00-3.874-3.882z"/><path fill="#000" fill-rule="nonzero" d="M227.11 139.075c11.808 0 21.235-2.303 28.28-6.91 7.045-4.606 10.568-10.57 10.568-17.893 0-11.811-8.817-17.717-26.45-17.717h-10.862c-3.621 0-6.219-.354-7.793-1.063-1.575-.708-2.362-1.89-2.362-3.543 0-1.653.512-3.031 1.535-4.134.394-.472.906-.63 1.535-.472 2.52.708 4.92 1.063 7.203 1.063 8.108 0 14.7-1.949 19.778-5.847 5.077-3.897 7.615-9.665 7.615-17.303 0-2.835-.511-5.354-1.534-7.559-.08-.157-.06-.335.059-.531a.58.58 0 01.53-.296h2.717c1.968 0 3.62-.669 4.959-2.008 1.338-1.338 2.007-2.992 2.007-4.96v-1.654c0-1.89-.669-3.523-2.007-4.901-1.338-1.378-2.991-2.067-4.96-2.067h-17.357a7.32 7.32 0 01-1.77-.237c-3.07-.944-6.416-1.417-10.037-1.417-5.117 0-9.8.886-14.051 2.658-4.25 1.771-7.773 4.606-10.568 8.504-2.794 3.897-4.192 8.523-4.192 13.878 0 3.7.866 7.086 2.598 10.157 1.732 3.07 3.897 5.551 6.494 7.441.158.079.236.197.236.354 0 .158-.078.315-.236.473-2.204 1.575-3.975 3.484-5.313 5.728-1.338 2.244-2.008 4.547-2.008 6.91 0 5.039 2.008 8.937 6.022 11.693.158.078.237.216.237.413a.734.734 0 01-.237.531c-3.148 1.575-5.53 3.504-7.143 5.788-1.614 2.283-2.42 4.803-2.42 7.559 0 3.937 1.337 7.244 4.014 9.921 2.676 2.677 6.12 4.587 10.331 5.729 4.212 1.141 9.073 1.712 14.583 1.712zm1.654-63.661c-2.598 0-4.703-.926-6.317-2.776-1.614-1.85-2.42-4.508-2.42-7.972 0-3.386.806-6.004 2.42-7.855 1.614-1.85 3.72-2.775 6.317-2.775 2.598 0 4.703.905 6.317 2.716 1.614 1.811 2.42 4.449 2.42 7.914 0 3.464-.806 6.122-2.42 7.972-1.614 1.85-3.72 2.776-6.317 2.776zm1.653 50.197c-4.487 0-8.049-.61-10.686-1.831-2.637-1.22-3.955-3.051-3.955-5.492 0-1.969.905-3.82 2.715-5.551.236-.237.59-.355 1.063-.355h.354c1.968.394 4.96.59 8.974.59h6.494c3.464 0 6.002.355 7.616 1.064 1.614.708 2.42 2.008 2.42 3.897 0 2.205-1.397 4.036-4.191 5.493-2.795 1.456-6.396 2.185-10.804 2.185zm57.149-94.253c3.542 0 6.454-1.023 8.737-3.07 2.283-2.048 3.424-4.686 3.424-7.914 0-3.228-1.14-5.886-3.424-7.972-2.283-2.087-5.195-3.13-8.737-3.13-3.621 0-6.593 1.043-8.915 3.13-2.322 2.086-3.483 4.744-3.483 7.972 0 3.228 1.16 5.866 3.483 7.913 2.322 2.048 5.294 3.071 8.915 3.071zm3.66 78.426c1.89 0 3.523-.69 4.9-2.067 1.378-1.378 2.067-3.012 2.067-4.902V47.894c0-1.89-.69-3.524-2.067-4.902-1.377-1.378-3.01-2.067-4.9-2.067h-7.439c-1.968 0-3.62.69-4.959 2.067-1.338 1.378-2.007 3.012-2.007 4.902v54.921c0 1.89.669 3.524 2.007 4.902 1.338 1.378 2.991 2.067 4.96 2.067h7.438zm51.363 1.653a47.52 47.52 0 008.856-.826c1.889-.315 3.345-1.339 4.369-3.071.708-1.181 1.062-2.402 1.062-3.662 0-.55-.04-1.141-.118-1.771l-.472-1.89c-.394-1.654-1.378-2.973-2.952-3.957s-3.346-1.516-5.313-1.594c-5.432-.237-8.148-3.78-8.148-10.63V58.642c0-.551.276-.827.827-.827h8.383c1.89 0 3.523-.689 4.9-2.067 1.378-1.378 2.067-3.012 2.067-4.901v-2.953c0-1.89-.69-3.524-2.067-4.902-1.377-1.378-3.01-2.067-4.9-2.067H340.7c-.551 0-.827-.275-.827-.826V29.823c0-1.969-.688-3.622-2.066-4.96-1.378-1.34-3.011-2.009-4.9-2.009h-4.015c-1.968 0-3.7.65-5.195 1.95-1.496 1.298-2.401 2.932-2.716 4.9L319.682 40.1c-.078.55-.433.866-1.062.944l-2.716.237c-1.968.157-3.621.964-4.96 2.42-1.337 1.458-2.007 3.17-2.007 5.139v2.008c0 1.89.69 3.523 2.067 4.901 1.377 1.378 3.01 2.067 4.9 2.067h1.535c.55 0 .826.276.826.827v25.63c0 8.583 1.968 15.256 5.904 20.02 3.936 4.763 10.076 7.145 18.42 7.145zm57.74 0c6.297 0 12.515-1.456 18.655-4.37 1.732-.787 2.834-2.165 3.306-4.134a5.35 5.35 0 00.355-1.89c0-1.18-.355-2.362-1.063-3.543l-.354-.708c-.945-1.654-2.323-2.756-4.133-3.307a9.832 9.832 0 00-2.598-.355 9.27 9.27 0 00-2.952.473 24.651 24.651 0 01-8.265 1.417c-9.289 0-14.917-4.134-16.885-12.402a.652.652 0 01.118-.65.727.727 0 01.59-.295h32.472c2.046 0 3.857-.65 5.431-1.948 1.574-1.3 2.4-2.933 2.48-4.902V72.58c0-9.921-2.52-17.953-7.557-24.095-5.038-6.141-12.359-9.212-21.962-9.212-4.172 0-8.207.846-12.103 2.54a33.383 33.383 0 00-10.39 7.086c-3.031 3.031-5.472 6.85-7.322 11.457-1.85 4.606-2.774 9.626-2.774 15.059 0 11.102 3.286 19.882 9.859 26.338 6.573 6.457 14.937 9.685 25.091 9.685zm8.028-43.7H386.75c-.55 0-.826-.197-.826-.591 0-3.228 1.535-6.103 4.605-8.622 2.204-1.89 4.841-2.835 7.91-2.835 3.543 0 6.2 1.004 7.971 3.012s2.735 4.705 2.893 8.09v.119c0 .55-.315.826-.945.826zm63.997 43.7c6.298 0 12.517-1.456 18.656-4.37 1.732-.787 2.834-2.165 3.307-4.134a5.35 5.35 0 00.354-1.89c0-1.18-.354-2.362-1.063-3.543l-.354-.708c-.945-1.654-2.322-2.756-4.133-3.307a9.832 9.832 0 00-2.597-.355 9.27 9.27 0 00-2.952.473 24.651 24.651 0 01-8.266 1.417c-9.288 0-14.917-4.134-16.885-12.402a.652.652 0 01.119-.65.727.727 0 01.59-.295h32.47c2.047 0 3.858-.65 5.432-1.948 1.575-1.3 2.401-2.933 2.48-4.902V72.58c0-9.921-2.519-17.953-7.557-24.095-5.038-6.141-12.359-9.212-21.962-9.212-4.172 0-8.206.846-12.103 2.54a33.383 33.383 0 00-10.39 7.086c-3.031 3.031-5.471 6.85-7.321 11.457-1.85 4.606-2.775 9.626-2.775 15.059 0 11.102 3.286 19.882 9.86 26.338 6.572 6.457 14.936 9.685 25.09 9.685zm8.03-43.7h-21.608c-.551 0-.827-.197-.827-.591 0-3.228 1.535-6.103 4.605-8.622 2.204-1.89 4.841-2.835 7.911-2.835 3.543 0 6.2 1.004 7.97 3.012 1.772 2.008 2.736 4.705 2.893 8.09v.119c0 .55-.315.826-.944.826z"/></g></svg>
